X:0545
M:3/4
L:1/8
Q:1/4=96 "Affectuoso"
K:G
d>B|g3     d e>c| Bc  d2 B>G|d3   B      cA    |(G2F2)\
g=f|e3     d c>B| c>d e2 dc |d3  (c/B/) (cB/A/)|(G2F2)
dB|(g>fe)`.d.c.B| e>d`cB`AG |B3/c//d// BGAF| c>de>f Hgf/e/|d>e dBcA| G2z2|]

